layout/main/dist/assets/main/img/contacts/behance.svg

<svg width="36" height="36" viewBox="0 0 36 36" fill="none" xmlns="http://www.w3.org/2000/svg">
<path d="M18 36C27.9411 36 36 27.9411 36 18C36 8.05888 27.9411 0 18 0C8.05888 0 0 8.05888 0 18C0 27.9411 8.05888 36 18 36Z" fill="#4176FA"/>
<path d="M24.453 14.8695C19.254 14.8695 19.2472 20.049 19.2472 20.0756C19.2472 20.0756 18.8911 25.2615 24.453 25.2615C24.453 25.2615 29.0914 25.5252 29.0914 21.6524H26.7096C26.7096 21.6524 26.7886 23.1104 24.5322 23.1104C24.5322 23.1104 22.1504 23.2689 22.1504 20.7549H29.1707C29.1707 20.7549 29.9427 14.8695 24.453 14.8695ZM22.1238 18.9404C22.1238 18.9404 22.4142 16.8554 24.5059 16.8554C26.6041 16.8554 26.571 18.9404 26.571 18.9404H22.1238ZM16.173 17.6078C16.173 17.6078 18.2381 17.4561 18.2381 15.0281C18.2381 12.6068 16.5491 11.4189 14.4047 11.4189H7.35107V24.9775H14.4041C14.4041 24.9775 18.7127 25.1097 18.7127 20.9728C18.713 20.9728 18.8978 17.6078 16.173 17.6078ZM10.459 13.8271H14.4044C14.4044 13.8271 15.3612 13.8271 15.3612 15.2389C15.3612 16.6507 14.8003 16.8554 14.1602 16.8554H10.459V13.8271ZM14.2067 22.5694H10.459V18.9404H14.4044C14.4044 18.9404 15.8364 18.9272 15.8297 20.8075C15.8297 22.3913 14.7676 22.5562 14.2067 22.5694ZM21.5366 12.2173V13.8867H27.1319V12.2173H21.5366Z" fill="#F1F2F2"/>
</svg>

<svg width="36" height="36" viewBox="0 0 36 36" fill="none" xmlns="http://www.w3.org/2000/svg"><path d="M18 36c9.941 0 18-8.059 18-18S27.941 0 18 0 0 8.059 0 18s8.059 18 18 18z" fill="#4176FA"/><path d="M24.453 14.87c-5.199 0-5.206 5.179-5.206 5.206 0 0-.356 5.186 5.206 5.186 0 0 4.638.263 4.638-3.61H26.71s.079 1.458-2.178 1.458c0 0-2.382.159-2.382-2.355h7.02s.773-5.885-4.717-5.885zm-2.33 4.07s.291-2.085 2.383-2.085c2.098 0 2.065 2.085 2.065 2.085h-4.447zm-5.95-1.332s2.065-.152 2.065-2.58c0-2.421-1.689-3.61-3.833-3.61H7.35v13.56h7.053s4.309.132 4.309-4.005c0 0 .185-3.365-2.54-3.365zm-5.714-3.78h3.945s.957 0 .957 1.41c0 1.413-.56 1.617-1.2 1.617h-3.702v-3.028zm3.748 8.741h-3.748V18.94h3.945s1.432-.013 1.426 1.867c0 1.584-1.062 1.75-1.623 1.762zm7.33-10.352v1.67h5.595v-1.67h-5.595z" fill="#F1F2F2"/></svg>
